packages/ui-icons/svg/Line/image.svg

<svg viewBox="0 0 1920 1920" version="1.1" xmlns="http://www.w3.org/2000/svg">
    <path d="M1920,113 L1920,1807.11765 L0,1807.11765 L0,113 L1920,113 Z M1807.05882,225.941176 L112.941176,225.941176 L112.941176,1694.28941 L1807.05882,1694.28941 L1807.05882,225.941176 Z M935.943529,1058.76941 C1118.79529,800.36 1268.44235,771.898824 1362.63529,793.922353 C1523.35059,831.305882 1634.71059,1036.18118 1693.44,1402.90118 L1693.44,1402.90118 L1703.94353,1468.29412 L207.924706,1468.29412 L228.028235,1396.57647 C313.411765,1090.50588 400.941176,939.503529 511.397647,906.863529 C613.948235,876.708235 696.734118,950.684706 770.258824,1015.96471 C813.854118,1054.47765 861.063529,1097.05647 892.8,1094.79765 C908.724706,1092.99059 924.988235,1074.24235 935.943529,1058.76941 Z M1337.11059,903.927059 C1254.09882,884.614118 1141.04471,964.689412 1028.21647,1123.93647 C992.978824,1173.74353 951.868235,1201.75294 905.901176,1207.06118 C829.674918,1216.08518 767.719319,1164.23433 707.088995,1110.79476 L703.220649,1107.38213 C700.642786,1105.10638 698.066824,1102.83002 695.491765,1100.55765 C641.28,1052.44471 584.809412,1003.54118 543.472941,1015.17412 C509.025882,1025.33882 441.148235,1084.29412 357.684706,1355.35294 L357.684706,1355.35294 L1570.44706,1355.35294 C1519.96235,1090.16706 1436.04706,926.967059 1337.11059,903.927059 Z M677.647059,338.882353 C802.221176,338.882353 903.529412,440.190588 903.529412,564.764706 C903.529412,689.338824 802.221176,790.647059 677.647059,790.647059 C553.072941,790.647059 451.764706,689.338824 451.764706,564.764706 C451.764706,440.190588 553.072941,338.882353 677.647059,338.882353 Z M677.647059,451.823529 C615.303529,451.823529 564.705882,502.534118 564.705882,564.764706 C564.705882,626.995294 615.303529,677.705882 677.647059,677.705882 C739.990588,677.705882 790.588235,626.995294 790.588235,564.764706 C790.588235,502.534118 739.990588,451.823529 677.647059,451.823529 Z" stroke="none" stroke-width="1" fill-rule="evenodd"/>
</svg>

<svg viewBox="0 0 1920 1920" xmlns="http://www.w3.org/2000/svg">
    <path d="M1920 113v1694.118H0V113h1920Zm-112.941 112.941H112.94V1694.29h1694.12V225.941ZM935.944 1058.77c182.851-258.409 332.498-286.87 426.691-264.847 160.716 37.384 272.076 242.26 330.805 608.98l10.504 65.392H207.924l20.104-71.718c85.384-306.07 172.913-457.072 283.37-489.712 102.55-30.156 185.336 43.82 258.86 109.1 43.596 38.514 90.806 81.092 122.542 78.834 15.925-1.807 32.188-20.556 43.144-36.029Zm401.167-154.842c-83.012-19.313-196.066 60.762-308.895 220.01-35.237 49.807-76.348 77.816-122.315 83.124-76.226 9.024-138.182-42.827-198.812-96.266l-3.868-3.413c-2.578-2.276-5.154-4.552-7.73-6.824-54.211-48.113-110.682-97.017-152.018-85.384-34.447 10.165-102.325 69.12-185.788 340.179h1212.762c-50.485-265.186-134.4-428.386-233.336-451.426ZM677.647 338.882c124.574 0 225.882 101.309 225.882 225.883 0 124.574-101.308 225.882-225.882 225.882S451.765 689.34 451.765 564.765s101.308-225.883 225.882-225.883Zm0 112.942c-62.343 0-112.941 50.71-112.941 112.94 0 62.231 50.598 112.942 112.941 112.942 62.344 0 112.941-50.71 112.941-112.941 0-62.23-50.597-112.941-112.94-112.941Z" fill-rule="evenodd"/>
</svg>
